X:1
T:D Major Oliver Holden, 1800
T:Philip Doddridge, 1755 88. 88. (L. M.)
T:Infant Time No copyright. Treble-Tenor-Bass from Plain Psalmody , 1800; Counter by B. C. Johnston, 2015.
%%score [ 1 2 3 4 ]
L:1/8
M:4/4
K:D
V:1 treble nm="Treble" snm="Tr."
V:2 treble nm="Counter" snm="C."
V:3 treble-8 nm="Tenor" snm="T."
V:4 bass nm="Bass" snm="B."
V:1
 A4 F2 A2 | G3 E D2 C2 | D2 E2 F2 G2 | A4 d4 | c4 B4 | A8 | B4 B2 B2 | B6 B2 | c4 c4 | c6 c2 | %10
 d3 e d2 f2 | d4 c4 | d8 | z8 | z8 | z8 | z8 | z8 | z8 | z8 | z8 | d4 A3 B | A3 F E2 G2 | %23
 (F2 G2 A2) d2 | (c2 d2 e2) c2 | A6 e2 | dcdefe dc | d8 |] %28
V:2
 F4 A2 F2 | G3 E A2 G2 | A2 A2 A2 G2 | F4 A4 | E4 E4 | E8 | B4 G2 G2 | G6 G2 | A4 A4 | A6 A2 | %10
w: 1.~God of e-|ter- ni- ty, from|Thee, Did in- fant|time her|be- ing|draw;|Mo- ments and|days, and|months and|years, Re-|
 F3 E F2 F2 | A4 G4 | A8 | z8 | z8 | z8 | z8 | F4 B2 F2 | D6 D2 | (A2 G2) (F2 E2) | F8 | F4 D3 F | %22
w: volve by Thine un-|wea- ried|law.|||||Ste- dy and|strong the|cur- * rent *|flows;|Lost in e-|
 A3 F E2 G2 | (A2 G2 F2) D2 | (E2 F2 E2) G2 | A6 G2 | F6 D2 | D8 |] %28
w: ter- ni- ty's wide|sea, * * The|bound- * * less|gulf from|which it|rose.|
V:3
 d4 A2 d2 | e3 c A2 G2 | F2 A2 d2 c2 | d4 A4 | A4 ^G4 | A8 | G4 G2 G2 | G6 G2 | A4 A4 | A6 A2 | %10
w: 2.~Yet while the|shore on ei- ther|side Pre- sents a|gau- dy,|flat- ering|show,|We gaze, in|fond a-|muse- ment|lost, Nor|
 A3 A A2 d2 | A4 G4 | F8 | A4 F2 A2 | (B2 c2 d2) cB | (A2 G2 F2) E2 | F8 | B4 F2 B2 | d6 d2 | %19
w: think to what a|world we|go.|Great Source of|wis- * * dom, *|teach * * my|heart|To know the|price of|
 (f2 e2) (d2 c2) | B8 | A4 d3 d | d3 A F2 A2 | d6 d2 | (e2 d2 c2) e2 | d6 g2 | f4 e4 | d8 |] %28
w: eve- * ry *|hour;|That time may|bear me on to|joys Be-|yond * * its|mea- sure,|and its|power.|
V:4
 D,4 D,2 D,2 | A,,3 A,, A,,2 A,,2 | D,2 C,2 D,2 E,2 | F,4 D,4 | E,4 E,4 | A,,8 | G,4 G,2 G,2 | %7
 E,6 E,2 | A,4 A,4 | A,6 A,2 | F,3 A, F,2 F,2 | A,4 A,4 | D,8 | D,4 D,2 D,2 | (G,2 A,2 B,2) A,2 | %15
 (F,2 E,2 D,2) A,,2 | D,8 | B,,4 B,,2 F,2 | B,6 B,2 | F,4 F,4 | B,,8 | D,4 D,3 D, | %22
 D,3 D, D,2 C,2 | D,6 D,2 | A,6 A,2 | F,6 G,2 | A,4 A,4 | D,8 |] %28

